src/assets/images/svg/double-chevron.svg

<?xml version="1.0" encoding="UTF-8"?>
<svg xmlns="http://www.w3.org/2000/svg" xmlns:xlink="http://www.w3.org/1999/xlink" width="19px" height="19px" viewBox="0 0 19 19" version="1.1">
<g id="surface1">
<path style=" stroke:none;fill-rule:nonzero;fill:rgb(0%,0%,0%);fill-opacity:1;" d="M 1.109375 3.515625 C 0.953125 3.609375 0.878906 3.765625 0.902344 3.949219 C 0.921875 4.09375 1.042969 4.222656 3.644531 6.800781 L 6.363281 9.5 L 3.6875 12.164062 C 2.21875 13.625 0.996094 14.863281 0.972656 14.90625 C 0.914062 15.019531 0.917969 15.195312 0.984375 15.328125 C 1.097656 15.550781 1.078125 15.546875 3.09375 15.546875 C 4.105469 15.546875 4.96875 15.535156 5.015625 15.515625 C 5.109375 15.480469 10.617188 9.902344 10.730469 9.726562 C 10.816406 9.605469 10.816406 9.394531 10.730469 9.273438 C 10.617188 9.097656 5.109375 3.519531 5.015625 3.484375 C 4.96875 3.464844 4.09375 3.449219 3.070312 3.449219 C 1.414062 3.453125 1.195312 3.457031 1.109375 3.515625 Z M 7.1875 6.90625 C 8.570312 8.316406 9.703125 9.480469 9.703125 9.5 C 9.703125 9.519531 8.570312 10.683594 7.1875 12.09375 L 4.667969 14.65625 L 2.453125 14.65625 L 4.917969 12.207031 C 6.722656 10.40625 7.390625 9.71875 7.421875 9.625 C 7.457031 9.535156 7.457031 9.460938 7.425781 9.378906 C 7.398438 9.296875 6.644531 8.523438 4.910156 6.800781 L 2.429688 4.34375 L 3.550781 4.339844 L 4.667969 4.339844 Z M 7.1875 6.90625 "/>
<path style=" stroke:none;fill-rule:nonzero;fill:rgb(0%,0%,0%);fill-opacity:1;" d="M 8.417969 3.511719 C 8.214844 3.617188 8.136719 3.933594 8.269531 4.117188 C 8.300781 4.171875 9.199219 5.070312 10.261719 6.121094 C 11.320312 7.167969 12.523438 8.359375 12.933594 8.765625 L 13.675781 9.503906 L 10.953125 12.203125 L 8.238281 14.898438 L 8.238281 15.085938 C 8.238281 15.191406 8.265625 15.308594 8.296875 15.355469 C 8.429688 15.546875 8.425781 15.546875 10.398438 15.546875 C 11.402344 15.546875 12.265625 15.539062 12.308594 15.527344 C 12.355469 15.515625 13.667969 14.207031 15.230469 12.617188 C 17.382812 10.425781 18.070312 9.699219 18.089844 9.613281 C 18.105469 9.550781 18.105469 9.449219 18.089844 9.386719 C 18.070312 9.300781 17.382812 8.574219 15.230469 6.382812 C 13.667969 4.792969 12.355469 3.484375 12.308594 3.472656 C 12.265625 3.460938 11.390625 3.449219 10.371094 3.453125 C 8.800781 3.453125 8.5 3.460938 8.417969 3.511719 Z M 14.496094 6.910156 C 15.882812 8.320312 17.015625 9.484375 17.015625 9.5 C 17.015625 9.515625 15.882812 10.679688 14.496094 12.089844 L 11.976562 14.65625 L 9.742188 14.65625 L 12.21875 12.199219 C 14.867188 9.578125 14.804688 9.652344 14.730469 9.371094 C 14.707031 9.289062 13.996094 8.566406 12.21875 6.800781 L 9.742188 4.34375 L 10.859375 4.339844 L 11.976562 4.339844 Z M 14.496094 6.910156 "/>
</g>
</svg>

<svg xmlns="http://www.w3.org/2000/svg" width="19" height="19"><path d="M1.11 3.516a.42.42 0 0 0-.208.433c.02.145.141.274 2.743 2.852L6.363 9.5l-2.676 2.664c-1.468 1.461-2.69 2.7-2.714 2.742a.5.5 0 0 0 .011.422c.114.223.094.219 2.11.219 1.011 0 1.875-.012 1.922-.031.093-.036 5.601-5.614 5.714-5.79a.43.43 0 0 0 0-.453c-.113-.175-5.62-5.753-5.714-5.789-.047-.02-.922-.035-1.946-.035-1.656.004-1.875.008-1.96.067Zm6.077 3.39C8.57 8.316 9.704 9.48 9.704 9.5c0 .02-1.133 1.184-2.515 2.594l-2.52 2.562H2.453l2.465-2.449c1.805-1.8 2.473-2.488 2.504-2.582a.317.317 0 0 0 .004-.246c-.028-.082-.781-.856-2.516-2.578L2.43 4.344l1.12-.004h1.118Zm0 0" style="stroke:none;fill-rule:nonzero;fill:#000;fill-opacity:1"/><path d="M8.418 3.512c-.203.105-.281.422-.148.605.03.055.93.953 1.992 2.004l2.672 2.645.742.738-2.723 2.7-2.715 2.694v.188c0 .105.028.223.059.27.133.19.129.19 2.101.19 1.004 0 1.868-.007 1.91-.019.047-.011 1.36-1.32 2.922-2.91 2.153-2.191 2.84-2.918 2.86-3.004a.553.553 0 0 0 0-.226c-.02-.086-.707-.813-2.86-3.004-1.562-1.59-2.875-2.899-2.921-2.91-.043-.012-.918-.024-1.938-.02-1.57 0-1.871.008-1.953.059Zm6.078 3.398c1.387 1.41 2.52 2.574 2.52 2.59 0 .016-1.133 1.18-2.52 2.59l-2.52 2.566H9.743L12.22 12.2c2.648-2.62 2.586-2.547 2.511-2.828-.023-.082-.734-.805-2.511-2.57L9.742 4.344l1.117-.004h1.118Zm0 0" style="stroke:none;fill-rule:nonzero;fill:#000;fill-opacity:1"/></svg>
